lib/svg/person.svg

<svg xmlns="http://www.w3.org/2000/svg" width="12" height="16" viewBox="0 0 12 16"><path d="M12 14.002a.998.998 0 0 1-.998.998H1.001A1 1 0 0 1 0 13.999V13c0-2.633 4-4 4-4s.229-.409 0-1c-.841-.62-.944-1.59-1-4 .173-2.413 1.867-3 3-3s2.827.586 3 3c-.056 2.41-.159 3.38-1 4-.229.59 0 1 0 1s4 1.367 4 4v1.002z"/></svg>

<?xml version="1.0" encoding="UTF-8" standalone="no"?>
<svg width="12px" height="16px" viewBox="0 0 12 16" version="1.1" xmlns="http://www.w3.org/2000/svg" xmlns:xlink="http://www.w3.org/1999/xlink">
    <!-- Generator: Sketch 3.8.3 (29802) - http://www.bohemiancoding.com/sketch -->
    <title>person</title>
    <desc>Created with Sketch.</desc>
    <defs></defs>
    <g id="Octicons" stroke="none" stroke-width="1" fill="none" fill-rule="evenodd">
        <g id="person" fill="#000000">
            <path d="M12,14.002 C12,14.553 11.553,15 11.002,15 L1.001,15 C0.448,15 0,14.552 0,13.999 L0,13 C0,10.367 4,9 4,9 C4,9 4.229,8.591 4,8 C3.159,7.38 3.056,6.41 3,4 C3.173,1.587 4.867,1 6,1 C7.133,1 8.827,1.586 9,4 C8.944,6.41 8.841,7.38 8,8 C7.771,8.59 8,9 8,9 C8,9 12,10.367 12,13 L12,14.002 Z" id="Shape"></path>
        </g>
    </g>
</svg>
